!!!OTL: MEIN HERZ IST IM HOCHLAND
!!!ARE: Europa, Mitteleuropa, Deutschland; schottisch?
!!!SCT: B0534
!!!YEM: Copyright 1995, estate of Helmut Schaffrath.
**kern
*ICvox
*Ivox
*M3/4
*k[f#c#]
*D:
{4d
=1
4d
4f#
4a
=2
4.f#
8e
4d}
=3
{4.dd
8ee
4ff#
=4
2f#}
{8f#
8a
=5
4b
8dd
8b
8a
8f#
=6
4a
8a
8f#
8e
8d}
=7
{4dd
8dd
8b
8a
8f#
=8
2e}
{4d
=9
4d
4f#
4a
=10
4.f#
8e
4d}
=11
{4.dd
8ee
4ff#
=12
2f#}
{8dd
8a
=13
4f#
8a
8f#
8e
8d
=14
4e
4d}
{8d
8f#
=15
4a
4f#
8e
8a
=16
2f#}
==
!!!AGN: Wander -, Heimat - Lied
!!!ONB: ESAC (Essen Associative Code) Database: BOEHME
!!!AMT: simple triple
!!!AIN: vox
!!!EED: Helmut Schaffrath
!!!EEV: 1.0
*-
